svgs/light/arrows-turn-to-dots.svg

<svg xmlns="http://www.w3.org/2000/svg" viewBox="0 0 512 512"><!--! Font Awesome Pro 6.4.0 by @fontawesome - https://fontawesome.com License - https://fontawesome.com/license (Commercial License) Copyright 2023 Fonticons, Inc. --><path d="M260.7 36.7c6.2-6.2 16.4-6.2 22.6 0s6.2 16.4 0 22.6L230.6 112 432 112c44.2 0 80 35.8 80 80v48c0 8.8-7.2 16-16 16s-16-7.2-16-16V192c0-26.5-21.5-48-48-48l-201.4 0 52.7 52.7c6.2 6.2 6.2 16.4 0 22.6s-16.4 6.2-22.6 0l-80-80c-6.2-6.2-6.2-16.4 0-22.6l80-80zm-9.4 256l80 80c6.2 6.2 6.2 16.4 0 22.6l-80 80c-6.2 6.2-16.4 6.2-22.6 0s-6.2-16.4 0-22.6L281.4 400 80 400c-26.5 0-48 21.5-48 48v48c0 8.8-7.2 16-16 16s-16-7.2-16-16V448c0-44.2 35.8-80 80-80l201.4 0-52.7-52.7c-6.2-6.2-6.2-16.4 0-22.6s16.4-6.2 22.6 0zM448 416a32 32 0 1 0 0-64 32 32 0 1 0 0 64zm0-96a64 64 0 1 1 0 128 64 64 0 1 1 0-128zM32 128a32 32 0 1 0 64 0 32 32 0 1 0 -64 0zm96 0A64 64 0 1 1 0 128a64 64 0 1 1 128 0z"/></svg>

<svg xmlns="http://www.w3.org/2000/svg" viewBox="0 0 512 512"><!--! Font Awesome Pro 6.3.0 by @fontawesome - https://fontawesome.com License - https://fontawesome.com/license (Commercial License) Copyright 2023 Fonticons, Inc. --><path d="M260.7 36.69C266.9 30.44 277.1 30.44 283.3 36.69C289.6 42.93 289.6 53.06 283.3 59.31L230.6 112H432C476.2 112 512 147.8 512 192V240C512 248.8 504.8 256 496 256C487.2 256 480 248.8 480 240V192C480 165.5 458.5 144 432 144H230.6L283.3 196.7C289.6 202.9 289.6 213.1 283.3 219.3C277.1 225.6 266.9 225.6 260.7 219.3L180.7 139.3C174.4 133.1 174.4 122.9 180.7 116.7L260.7 36.69zM331.3 372.7C337.6 378.9 337.6 389.1 331.3 395.3L251.3 475.3C245.1 481.6 234.9 481.6 228.7 475.3C222.4 469.1 222.4 458.9 228.7 452.7L281.4 400H80C53.49 400 32 421.5 32 448V496C32 504.8 24.84 512 16 512C7.164 512 0 504.8 0 496V448C0 403.8 35.82 368 80 368H281.4L228.7 315.3C222.4 309.1 222.4 298.9 228.7 292.7C234.9 286.4 245.1 286.4 251.3 292.7L331.3 372.7zM384 384C384 348.7 412.7 320 448 320C483.3 320 512 348.7 512 384C512 419.3 483.3 448 448 448C412.7 448 384 419.3 384 384zM448 416C465.7 416 480 401.7 480 384C480 366.3 465.7 352 448 352C430.3 352 416 366.3 416 384C416 401.7 430.3 416 448 416zM0 127.1C0 92.65 28.65 63.1 64 63.1C99.35 63.1 128 92.65 128 127.1C128 163.3 99.35 191.1 64 191.1C28.65 191.1 0 163.3 0 127.1zM64 159.1C81.67 159.1 96 145.7 96 127.1C96 110.3 81.67 95.1 64 95.1C46.33 95.1 32 110.3 32 127.1C32 145.7 46.33 159.1 64 159.1z"/></svg>
